X:1
P: Pinkie House
C: William McGibbon Colln, from Elke Baker
C: arr. Terry Traub 2004-02-10
M: 6/8
R: strathspey
L: 1/8
K: G
G>A|"G"B>ABd B2 A>G|"G"d>Bd>e d2 g>f|"C"e>d e/f/g "G"d>BA>G|"D"A6 G>A|"G"B>ABd B2 AG|
"G"d>Bd>e d2 g>f|"C"e>deg "D"g/a/b a>g|"G"g3 a g2 || f>g|"D"a>ga>b a2 ga|"Em"ba/g/ fg/e/ "B"^d2 ef|
"Em"g>fg>a "B"f3 e|"Em"e3 f e2 ef/g/|"G"d>BA>G Bd "C"e/f/g|"G"d>BA>G "C"E2 b>a|"Em"g>f "C"ef/g/ "D"A3 G|"G"G3 A G2 |]
